src/images/icons/icons_separatly/logo_light.svg

<svg width="110" height="28" viewBox="0 0 110 28" fill="none" xmlns="http://www.w3.org/2000/svg">
<g clip-path="url(#clip0_4313_341)">
<path d="M0 2L12.2571 14.1286L24 26V2H0Z" fill="#F6F6F6"/>
<path d="M3.34277 5.17145L12.2999 14.0429L20.7428 22.6572H3.34277V5.17145Z" fill="#F6F6F6"/>
<path d="M20.7997 22.7137L11.8425 13.8423L3.39966 5.22797H20.7997V22.7137Z" fill="#4F2EE8"/>
<path d="M6.94287 8.77142L11.7 13.5286L17.1429 18.9714H6.94287V8.77142Z" fill="#4F2EE8"/>
<path d="M6.94287 8.77142L11.7 13.5286L17.1429 18.9714V8.77142H6.94287Z" fill="#F6F6F6"/>
</g>
<path d="M41.702 10.733C41.702 8.663 40.172 7.49301 37.526 7.49301H32V20.363H37.832C40.496 20.363 42.206 19.085 42.206 16.601C42.206 14.675 41.054 13.685 39.704 13.451V13.415C40.766 13.055 41.702 12.317 41.702 10.733ZM34.142 12.821V9.31101H37.58C38.858 9.31101 39.56 9.941 39.56 11.075C39.56 12.209 38.984 12.821 37.454 12.821H34.142ZM34.142 14.423H37.904C39.254 14.423 40.064 15.161 40.064 16.475C40.064 17.681 39.506 18.545 37.67 18.545H34.142V14.423Z" fill="black"/>
<path d="M47.7018 20.633C44.8218 20.633 43.0758 18.635 43.0758 15.773C43.0758 12.911 44.8218 10.913 47.7018 10.913C50.5818 10.913 52.3278 12.911 52.3278 15.773C52.3278 18.635 50.5818 20.633 47.7018 20.633ZM47.7018 19.085C49.5018 19.085 50.4378 17.663 50.4378 15.773C50.4378 13.865 49.5018 12.461 47.7018 12.461C45.9018 12.461 44.9658 13.865 44.9658 15.773C44.9658 17.663 45.9018 19.085 47.7018 19.085Z" fill="black"/>
<path d="M57.774 20.633C54.894 20.633 53.148 18.635 53.148 15.773C53.148 12.911 54.894 10.913 57.774 10.913C60.654 10.913 62.4 12.911 62.4 15.773C62.4 18.635 60.654 20.633 57.774 20.633ZM57.774 19.085C59.574 19.085 60.51 17.663 60.51 15.773C60.51 13.865 59.574 12.461 57.774 12.461C55.974 12.461 55.038 13.865 55.038 15.773C55.038 17.663 55.974 19.085 57.774 19.085Z" fill="black"/>
<path d="M63.7063 7.49301V20.363H65.5963V17.033L66.8743 15.827L69.7723 20.363H72.0403L68.1703 14.585L71.6623 11.165H69.3403L65.5963 14.855V7.49301H63.7063Z" fill="black"/>
<path d="M76.5964 14.801C75.2644 14.495 74.2384 14.423 74.2384 13.487C74.2384 12.839 74.8504 12.407 75.9844 12.407C77.4604 12.407 77.8204 13.145 77.9464 13.865H79.7824C79.6564 12.263 78.4684 10.913 75.9664 10.913C73.6624 10.913 72.3304 12.119 72.3304 13.631C72.3304 15.719 74.3104 16.007 75.7684 16.349C77.1184 16.673 78.2164 16.763 78.2164 17.915C78.2164 18.491 77.6584 19.139 76.3444 19.139C74.4004 19.139 73.9684 18.293 73.8784 17.303H72.0424C72.1324 19.247 73.4104 20.633 76.3804 20.633C78.6124 20.633 80.1244 19.535 80.1244 17.771C80.1244 15.575 78.2884 15.197 76.5964 14.801Z" fill="black"/>
<path d="M86.3039 10.913C84.7559 10.913 83.8019 11.633 83.3159 12.353H83.2799V7.49301H81.3899V20.363H83.2799V14.765C83.2799 13.397 84.2699 12.515 85.6559 12.515C86.9699 12.515 87.4919 13.307 87.4919 14.549V20.363H89.3999V14.009C89.3999 11.903 88.0499 10.913 86.3039 10.913Z" fill="black"/>
<path d="M95.1962 19.085C93.5222 19.085 92.5322 17.807 92.5322 16.259H99.5882C99.5882 12.983 98.1302 10.913 95.1602 10.913C92.3882 10.913 90.6422 12.785 90.6422 15.773C90.6422 18.653 92.3882 20.633 95.2502 20.633C97.6082 20.633 98.9762 19.301 99.4442 17.555H97.5542C97.3922 18.113 96.7622 19.085 95.1962 19.085ZM95.1602 12.407C96.6902 12.407 97.6982 13.433 97.6982 14.855H92.5322C92.5322 13.433 93.6302 12.407 95.1602 12.407Z" fill="black"/>
<path d="M100.92 7.49301V20.363H102.828V7.49301H100.92Z" fill="black"/>
<path d="M109.001 9.04101V7.49301C108.623 7.421 108.209 7.367 107.741 7.367C106.229 7.367 105.401 8.05101 105.401 9.99501V11.165H104.087V12.713H105.401V20.363H107.309V12.713H109.001V11.165H107.309V10.157C107.309 9.11301 107.777 8.98701 109.001 9.04101Z" fill="black"/>
<defs>
<clipPath id="clip0_4313_341">
<rect width="24" height="24" fill="white" transform="translate(0 2)"/>
</clipPath>
</defs>
</svg>

<svg xmlns="http://www.w3.org/2000/svg" width="110" height="28" fill="none"><g clip-path="url(#a)"><path fill="#F6F6F6" d="m0 2 12.257 12.129L24 26V2H0Z"/><path fill="#F6F6F6" d="m3.343 5.171 8.957 8.872 8.443 8.614h-17.4V5.171Z"/><path fill="#4F2EE8" d="m20.8 22.714-8.958-8.872L3.4 5.228h17.4v17.486Z"/><path fill="#4F2EE8" d="M6.943 8.771 11.7 13.53l5.443 5.442h-10.2v-10.2Z"/><path fill="#F6F6F6" d="M6.943 8.771 11.7 13.53l5.443 5.442v-10.2h-10.2Z"/></g><path fill="#000" d="M41.702 10.733c0-2.07-1.53-3.24-4.176-3.24H32v12.87h5.832c2.664 0 4.374-1.278 4.374-3.762 0-1.926-1.152-2.916-2.502-3.15v-.036c1.062-.36 1.998-1.098 1.998-2.682Zm-7.56 2.088v-3.51h3.438c1.278 0 1.98.63 1.98 1.764s-.576 1.746-2.106 1.746h-3.312Zm0 1.602h3.762c1.35 0 2.16.738 2.16 2.052 0 1.206-.558 2.07-2.394 2.07h-3.528v-4.122ZM47.702 20.633c-2.88 0-4.626-1.998-4.626-4.86s1.746-4.86 4.626-4.86c2.88 0 4.626 1.998 4.626 4.86s-1.746 4.86-4.626 4.86Zm0-1.548c1.8 0 2.736-1.422 2.736-3.312 0-1.908-.936-3.312-2.736-3.312-1.8 0-2.736 1.404-2.736 3.312 0 1.89.936 3.312 2.736 3.312ZM57.774 20.633c-2.88 0-4.626-1.998-4.626-4.86s1.746-4.86 4.626-4.86c2.88 0 4.626 1.998 4.626 4.86s-1.746 4.86-4.626 4.86Zm0-1.548c1.8 0 2.736-1.422 2.736-3.312 0-1.908-.936-3.312-2.736-3.312-1.8 0-2.736 1.404-2.736 3.312 0 1.89.936 3.312 2.736 3.312ZM63.706 7.493v12.87h1.89v-3.33l1.278-1.206 2.898 4.536h2.268l-3.87-5.778 3.492-3.42H69.34l-3.744 3.69V7.493h-1.89ZM76.596 14.801c-1.332-.306-2.358-.378-2.358-1.314 0-.648.612-1.08 1.746-1.08 1.476 0 1.836.738 1.962 1.458h1.836c-.126-1.602-1.314-2.952-3.816-2.952-2.304 0-3.636 1.206-3.636 2.718 0 2.088 1.98 2.376 3.438 2.718 1.35.324 2.448.414 2.448 1.566 0 .576-.558 1.224-1.872 1.224-1.944 0-2.376-.846-2.466-1.836h-1.836c.09 1.944 1.368 3.33 4.338 3.33 2.232 0 3.744-1.098 3.744-2.862 0-2.196-1.836-2.574-3.528-2.97ZM86.304 10.913c-1.548 0-2.502.72-2.988 1.44h-.036v-4.86h-1.89v12.87h1.89v-5.598c0-1.368.99-2.25 2.376-2.25 1.314 0 1.836.792 1.836 2.034v5.814H89.4v-6.354c0-2.106-1.35-3.096-3.096-3.096ZM95.196 19.085c-1.674 0-2.664-1.278-2.664-2.826h7.056c0-3.276-1.458-5.346-4.428-5.346-2.772 0-4.518 1.872-4.518 4.86 0 2.88 1.746 4.86 4.608 4.86 2.358 0 3.726-1.332 4.194-3.078h-1.89c-.162.558-.792 1.53-2.358 1.53Zm-.036-6.678c1.53 0 2.538 1.026 2.538 2.448h-5.166c0-1.422 1.098-2.448 2.628-2.448ZM100.92 7.493v12.87h1.908V7.493h-1.908ZM109.001 9.041V7.493a6.63 6.63 0 0 0-1.26-.126c-1.512 0-2.34.684-2.34 2.628v1.17h-1.314v1.548h1.314v7.65h1.908v-7.65h1.692v-1.548h-1.692v-1.008c0-1.044.468-1.17 1.692-1.116Z"/><defs><clipPath id="a"><path fill="#fff" d="M0 2h24v24H0z"/></clipPath></defs></svg>
